meters/img/telegram.svg

<svg width="32" height="32" viewBox="0 0 32 32" fill="none" xmlns="http://www.w3.org/2000/svg">
<circle cx="16" cy="16" r="14" fill="url(#paint0_linear_3001_3440)"/>
<path d="M22.9866 10.2088C23.1112 9.40332 22.3454 8.76755 21.6292 9.082L7.36482 15.3448C6.85123 15.5703 6.8888 16.3483 7.42147 16.5179L10.3631 17.4547C10.9246 17.6335 11.5325 17.541 12.0228 17.2023L18.655 12.6203C18.855 12.4821 19.073 12.7665 18.9021 12.9426L14.1281 17.8646C13.665 18.3421 13.7569 19.1512 14.314 19.5005L19.659 22.8523C20.2585 23.2282 21.0297 22.8506 21.1418 22.1261L22.9866 10.2088Z" fill="#F1F2F1"/>
<defs>
<linearGradient id="paint0_linear_3001_3440" x1="16" y1="2" x2="16" y2="30" gradientUnits="userSpaceOnUse">
<stop stop-color="#37BBFE"/>
<stop offset="1" stop-color="#007DBB"/>
</linearGradient>
</defs>
</svg>

<svg width="32" height="32" fill="none" xmlns="http://www.w3.org/2000/svg"><circle cx="16" cy="16" r="14" fill="url(#a)"/><path d="M22.987 10.209c.124-.806-.642-1.441-1.358-1.127L7.365 15.345c-.514.225-.476 1.003.056 1.173l2.942.937c.562.179 1.17.086 1.66-.253l6.632-4.582c.2-.138.418.147.247.323l-4.774 4.922c-.463.477-.371 1.286.186 1.636l5.345 3.351c.6.376 1.37-.001 1.483-.726l1.845-11.917Z" fill="#F1F2F1"/><defs><linearGradient id="a" x1="16" y1="2" x2="16" y2="30" gradientUnits="userSpaceOnUse"><stop stop-color="#37BBFE"/><stop offset="1" stop-color="#007DBB"/></linearGradient></defs></svg>
